apps/mobile/src/assets/images/qr-frame.svg

<svg width="143" height="142" viewBox="0 0 143 142" fill="none" xmlns="http://www.w3.org/2000/svg">
<path fill-rule="evenodd" clip-rule="evenodd" d="M134.556 27.8042C134.556 30.1874 136.145 31.7762 138.528 31.7762C140.911 31.7762 142.5 30.1874 142.5 27.8042V11.9161C142.5 5.56084 136.939 0 130.584 0H114.696C112.313 0 110.724 1.58881 110.724 3.97203C110.724 6.35525 112.313 7.94406 114.696 7.94406H130.584C132.967 7.94406 134.556 9.53287 134.556 11.9161V27.8042ZM0.500019 27.8043C0.500019 30.1875 2.08883 31.7763 4.47205 31.7763C6.85527 31.7763 8.44408 30.1875 8.44408 27.8043V11.9161C8.44408 9.53292 10.0329 7.94411 12.4161 7.94411H28.3042C30.6874 7.94411 32.2763 6.35529 32.2763 3.97208C32.2763 1.58886 30.6874 4.54829e-05 28.3042 4.54829e-05H12.4161C6.06086 4.54829e-05 0.500019 5.56089 0.500019 11.9161V27.8043ZM12.4161 142H28.3042C30.6874 142 32.2762 140.411 32.2762 138.028C32.2762 135.645 30.6874 134.056 28.3042 134.056H12.4161C10.0329 134.056 8.44406 132.467 8.44406 130.084V114.196C8.44406 111.813 6.85525 110.224 4.47203 110.224C2.08881 110.224 0.5 111.813 0.5 114.196V130.084C0.5 136.439 6.06084 142 12.4161 142ZM130.584 142H114.696C112.313 142 110.724 140.411 110.724 138.028C110.724 135.645 112.313 134.056 114.696 134.056H130.584C132.967 134.056 134.556 132.467 134.556 130.084V114.196C134.556 111.813 136.145 110.224 138.528 110.224C140.911 110.224 142.5 111.813 142.5 114.196V130.084C142.5 136.439 136.939 142 130.584 142Z" fill="white" fill-opacity="0.3"/>
</svg>

<svg width="143" height="142" viewBox="0 0 143 142" fill="none" xmlns="http://www.w3.org/2000/svg"><path fill-rule="evenodd" clip-rule="evenodd" d="M134.556 27.804c0 2.383 1.589 3.972 3.972 3.972s3.972-1.589 3.972-3.972V11.916C142.5 5.561 136.939 0 130.584 0h-15.888c-2.383 0-3.972 1.589-3.972 3.972s1.589 3.972 3.972 3.972h15.888c2.383 0 3.972 1.589 3.972 3.972v15.888ZM.5 27.804c0 2.384 1.589 3.972 3.972 3.972s3.972-1.588 3.972-3.972V11.916c0-2.383 1.589-3.972 3.972-3.972h15.888c2.383 0 3.972-1.589 3.972-3.972S30.687 0 28.304 0H12.416C6.061 0 .5 5.56.5 11.916v15.888ZM12.416 142h15.888c2.383 0 3.972-1.589 3.972-3.972s-1.589-3.972-3.972-3.972H12.416c-2.383 0-3.972-1.589-3.972-3.972v-15.888c0-2.383-1.589-3.972-3.972-3.972S.5 111.813.5 114.196v15.888C.5 136.439 6.06 142 12.416 142Zm118.168 0h-15.888c-2.383 0-3.972-1.589-3.972-3.972s1.589-3.972 3.972-3.972h15.888c2.383 0 3.972-1.589 3.972-3.972v-15.888c0-2.383 1.589-3.972 3.972-3.972s3.972 1.589 3.972 3.972v15.888c0 6.355-5.561 11.916-11.916 11.916Z" fill="#fff" fill-opacity=".3"/></svg>
